svgs/light/user-clock.svg

<svg xmlns="http://www.w3.org/2000/svg" viewBox="0 0 640 512"><!--! Font Awesome Pro 6.3.0 by @fontawesome - https://fontawesome.com License - https://fontawesome.com/license (Commercial License) Copyright 2023 Fonticons, Inc. --><path d="M544 352h-32v-48c0-8.838-7.164-16-16-16S480 295.2 480 304v70.25c0 5.385 4.365 9.75 9.75 9.75H544c8.836 0 16-7.164 16-16C560 359.2 552.8 352 544 352zM496 224c-79.63 0-144 64.38-144 144s64.38 144 144 144s144-64.38 144-144S575.6 224 496 224zM496 480c-61.75 0-112-50.25-112-112S434.3 256 496 256S608 306.3 608 368S557.8 480 496 480zM336 480H34.66C33.21 480 32 478.8 32 477.3C31.99 399.4 95.4 336 173.3 336H274.7c10.55 0 20.75 1.375 30.58 3.734c8.777 2.107 17.49-3.117 19.52-11.91c.0254-.1055 .0488-.2109 .0742-.3184c2.027-8.717-3.521-17.27-12.25-19.25C300.4 305.5 287.7 304 274.7 304H173.3C77.54 304-.1133 381.6 0 477.4C.0234 496.4 15.63 512 34.66 512h301.4C344.8 512 352 504.8 352 496S344.8 480 336 480zM224 256c70.7 0 128-57.31 128-128S294.7 0 224 0C153.3 0 96 57.31 96 128S153.3 256 224 256zM224 32c52.94 0 96 43.06 96 96c0 52.93-43.06 96-96 96S128 180.9 128 128C128 75.06 171.1 32 224 32z"/></svg>

<svg xmlns="http://www.w3.org/2000/svg" viewBox="0 0 640 512"><!-- Font Awesome Pro 6.0.0-alpha2 by @fontawesome - https://fontawesome.com License - https://fontawesome.com/license (Commercial License) --><path d="M544 352H512V304C512 295.162 504.836 288 496 288S480 295.162 480 304V374.25C480 379.635 484.365 384 489.75 384H544C552.836 384 560 376.836 560 368C560 359.162 552.836 352 544 352ZM496 224C416.375 224 352 288.375 352 368S416.375 512 496 512S640 447.625 640 368S575.625 224 496 224ZM496 480C434.25 480 384 429.75 384 368S434.25 256 496 256S608 306.25 608 368S557.75 480 496 480ZM336.022 480H34.664C33.213 480 32 478.793 32 477.342C31.994 399.404 95.399 336 173.336 336H274.664C285.219 336 295.412 337.375 305.242 339.734C314.02 341.842 322.736 336.617 324.766 327.82C324.791 327.715 324.815 327.609 324.84 327.502C326.867 318.785 321.318 310.229 312.59 308.254C300.387 305.49 287.705 304 274.664 304H173.336C77.539 304 -0.113 381.715 0 477.543C0.024 496.574 15.633 512 34.664 512H336.022C344.846 512 352 504.846 352 496.021V495.977C352 487.152 344.846 480 336.022 480ZM224 256C294.695 256 352 198.691 352 128S294.695 0 224 0C153.313 0 96 57.309 96 128S153.313 256 224 256ZM224 32C276.936 32 320 75.064 320 128C320 180.934 276.936 224 224 224S128 180.934 128 128C128 75.064 171.065 32 224 32Z"/></svg>
